X:170
T:High Road to Linton, The
R:reel
H:Also played in G.
H:See also fling#13 "Kitty Got a Clinking Coming from the Fair"
H:See also Scottish 4-part version, #862
D:Stockton's Wing
D:Paddy Glackin: Ceol ar an bhFidil le Paddy Glackin.
Z:id:hn-reel-170
M:C|
K:A
cefe ~a3e|fece efaB|cefe ~a3e|faec BcAB:|
|:ce~e2 fd~d2|ec~c2 dB~B2|ce~e2 faec|dcBd cAAB:|

